T: Jer O'Connell's
M: 2/4
L: 1/8
K: Dmaj
AD FG | AG AB | =c/B/A G>D | FG AF/G/ |AD FG | AG AB | =c/B/A GE | ED DA/B/ :|Ad de | fg/f/ ed | cA AB | cd ec |Ad de | fg/f/ ed | cA GE | ED D2 :|
